X: 7603
T: Cofey's
R: jig
M: 6/8
K: Dmixolydian
|:dcA GED|Ddc d2e|dcA GEC|CcB c2A|
dcA GED|Ddc ~d3|e/f/ge ded|1 cAA ABc:|2 cAA A2e||
|:efg eag|eAB c2d|efg eag|ed^c def|
~g3 afd|eAB c2d|e/f/ge ded|1 cAA A2e:|2 cAA ABc||

